X:1
T:374 - Salvo
T:Letra: Fanny Jane Crosby (1820-1915)
T:Trad.: AnÃ´nimo
T:MÃºsica: William Howard Doane (1832-1915)
L:1/16
M:4/4
Q:1/4=110
K:Fmaj
V:1
"F"A4 G3F C4 F4 | (A6 B2)A8 |c4 d3cA4 F4 | "C"G12 z4 | "F"A4 G3F C4 F4 | (A6 B2) "F7"c8 | ("Gm"c2B2) A2G2 "F/C"F4 "C7"E4 | "F"F12 z4 | "C"G4 G3AG4 G4 |G8 c8 | "G7"=B4 B3BA4 G4 | ("C"G8 c4)z4 | "C"G4 G3AG4 "C7"c4 | "F"c8 A8 | "G"G4 =B3c "G7"d4 B4 | ("C"c12 "C7"B4) || "F"A4 G3F C4 F4 | (A6 B2)A8 |c4 d3cA4 F4 | "C"G12 z4 | "F"A4 G3F C4 F4 | (A6 B2) "F7"c8 | ("Gm"c2B2) A2G2 "F/C"F4 "C7"E4 | "F"F12 z4 |] 
w:1.~Sal-vo por Je-sus Cris_to, te-nho per-fei-ta paz. A co-mu-nhÃ£o com E_le to_daaa-fli-Ã§Ã£o des-faz. E-le me deu cer-te-za  da mi-nha sal-va-Ã§Ã£o._    Que dei-ne-fÃ¡-vel go-zo  en-che meu co-ra-Ã§Ã£o._  Sal-vo por Je-sus Cris_to  te-nho per-fei-ta paz. A co-mu-nhÃ£o com E_le  to_daaa-fli-Ã§Ã£o des-faz.
w:2.~Cris-to Ã© mi-nha vi_da,  fon-te de do-cea-mor. E-le me ti-raa mÃ¡_goa, to_doo pe-sar ea dor. E se so-frer a pro-va,  mui fÃ¡-cil me se-rÃ¡._ Quan-do ver-ter o pran-to,  lo-goE-leoen-xu-ga-rÃ¡._
w:3.~E pas-sa-rei a noi_te  com E-le sem te-mor. TÃ© quea-ma-nhe-Ã§ao di_a  de_ pe-re-nal ful-gor. Mag-ni-fi-cen-tee san-to  vÃª-Loei a me fi-tar._ E na man-sÃ£o de glÃ³-ria  vou com Je-sus rei-nar!_
W:
W:
W:1. Salvo por Jesus Cristo,
W:tenho perfeita paz.
W:A comunhÃ£o com Ele
W:toda a afliÃ§Ã£o desfaz.
W:Ele me deu certeza 
W:da minha salvaÃ§Ã£o.   
W:Que de inefÃ¡vel gozo 
W:enche meu coraÃ§Ã£o.
W:
W:(Estribilho)
W:Salvo por Jesus Cristo 
W:tenho perfeita paz.
W:A comunhÃ£o com Ele 
W:toda a afliÃ§Ã£o desfaz.
W:
W:
W:
W:2. Cristo Ã© minha vida, 
W:fonte de doce amor.
W:Ele me tira a mÃ¡goa,  
W:todo o pesar e a dor.
W:E se sofrer a prova, 
W:mui fÃ¡cil me serÃ¡.                       
W:Quando verter o pranto, 
W:logo Ele o enxugarÃ¡.
W:
W:3. E passarei a noite 
W:com Ele sem temor.
W:TÃ© que amanheÃ§a o dia 
W:de perenal fulgor.
W:Magnificente e santo 
W:vÃª-Lo-ei a me fitar.
W:E na mansÃ£o de glÃ³ria 
W:vou com Jesus reinar!
W:
W:

